img/room_card-more.svg

<svg width="20" height="20" viewBox="0 0 20 20" fill="none" xmlns="http://www.w3.org/2000/svg">
<mask id="mask0_2184_13925" style="mask-type:alpha" maskUnits="userSpaceOnUse" x="1" y="1" width="18" height="18">
<path fill-rule="evenodd" clip-rule="evenodd" d="M1.6665 1.6665H18.3331V18.3332H1.6665V1.6665Z" fill="white"/>
</mask>
<g mask="url(#mask0_2184_13925)">
<path fill-rule="evenodd" clip-rule="evenodd" d="M6.3865 2.9165C4.279 2.9165 2.9165 4.36067 2.9165 6.5965V13.4032C2.9165 15.639 4.279 17.0832 6.3865 17.0832H13.6098C15.7198 17.0832 17.0832 15.639 17.0832 13.4032V6.5965C17.0832 4.36067 15.7198 2.9165 13.6115 2.9165H6.3865ZM13.6098 18.3332H6.3865C3.56317 18.3332 1.6665 16.3515 1.6665 13.4032V6.5965C1.6665 3.64817 3.56317 1.6665 6.3865 1.6665H13.6115C16.4357 1.6665 18.3332 3.64817 18.3332 6.5965V13.4032C18.3332 16.3515 16.4357 18.3332 13.6098 18.3332Z" fill="#222222"/>
</g>
<path fill-rule="evenodd" clip-rule="evenodd" d="M9.99463 13.9583C9.64963 13.9583 9.36963 13.6783 9.36963 13.3333V10C9.36963 9.655 9.64963 9.375 9.99463 9.375C10.3396 9.375 10.6196 9.655 10.6196 10V13.3333C10.6196 13.6783 10.3396 13.9583 9.99463 13.9583Z" fill="#222222"/>
<path fill-rule="evenodd" clip-rule="evenodd" d="M9.99912 7.67008C9.53829 7.67008 9.16162 7.29758 9.16162 6.83675C9.16162 6.37592 9.53079 6.00342 9.99079 6.00342H9.99912C10.46 6.00342 10.8325 6.37592 10.8325 6.83675C10.8325 7.29758 10.46 7.67008 9.99912 7.67008Z" fill="#222222"/>
</svg>

<svg width="20" height="20" viewBox="0 0 20 20" fill="none" xmlns="http://www.w3.org/2000/svg"><mask id="a" style="mask-type:alpha" maskUnits="userSpaceOnUse" x="1" y="1" width="18" height="18"><path fill-rule="evenodd" clip-rule="evenodd" d="M1.667 1.667h16.666v16.666H1.667V1.667z" fill="#fff"/></mask><g mask="url(#a)"><path fill-rule="evenodd" clip-rule="evenodd" d="M6.386 2.917c-2.107 0-3.47 1.444-3.47 3.68v6.806c0 2.236 1.363 3.68 3.47 3.68h7.224c2.11 0 3.473-1.444 3.473-3.68V6.596c0-2.235-1.363-3.68-3.471-3.68H6.385zm7.224 15.416H6.387c-2.824 0-4.72-1.981-4.72-4.93V6.596c0-2.948 1.896-4.93 4.72-4.93h7.224c2.825 0 4.722 1.982 4.722 4.93v6.807c0 2.949-1.897 4.93-4.723 4.93z" fill="#222"/></g><path fill-rule="evenodd" clip-rule="evenodd" d="M9.995 13.958a.625.625 0 0 1-.625-.625V10a.625.625 0 0 1 1.25 0v3.333c0 .345-.28.625-.625.625zM10 7.67a.836.836 0 0 1-.838-.833.83.83 0 0 1 .829-.834h.008a.833.833 0 1 1 0 1.667z" fill="#222"/></svg>
